X:184
T:Rose that’s ceas’d to Blow,The. CJF.184
R:Air
S:C.J.Fox MS, 1829/33, Beverley,E.Yorks.
N:The last two bars really do have all those notes. – PJH.
B:Kidson Coll.Mitchell Lib.M1805
O:England
A:East Yorkshire
Z:vmp.P J Headford 2000 & 2008
M:2/4
L:1/16
Q:1/4=60
K:Bb
“Moderato”(de)|f3de3c|B3cd3e|f2b2 (agec)|\
B3dcB A2c2|d3d=e3e|f3ga2f2|d2g2 c2d=e|f4||!
de|.f2.b2.f2.b2|(f/g/f/e/ d/e/d/c/) B2f2|\
e(c’/b/ a/g/f/e/) d(b/a/ g/f/e/d/)|(c/d/c/B/ A/B/A/G/) F2de|!
(fdba) (gfed)|(ecag) (fedc)|Bdfd Acec|d2e2{de}f2g2|\
.f.f.f.f .a.a.a.a|bz gz fz az|bz gz fz az|!
bz gz” Ad lib:”Hf4(g/f/e/d/) (c/B/A/G/ F/^F/G/A/)\
(B/c/d/e/) Hf2=e2_e2d2 hc2 B2dc|B4z4|]

